X:1
T:Fully Surrendered
T:Lelia Naylor Morris, 1916
T:Fully Surrendered
T:Public Domain
T:Public Domain
C:Lelia Naylor Morris, 1916
Z:Public Domain
%%score 1 ( 2 3 )
L:1/8
M:9/8
K:D
V:1 treble 
V:2 bass 
V:3 bass 
V:1
 [FA][FA][FA] | [FA]3 [DF]2 [FA] [Fd][Ac][GB] | [FA]6 [CG][CG][CG] | [CG]3 [CE]2 [EG] | %4
w: 1.~Ful- ly sur-|ren- dered to Je- sus the|Lord, Ful- ly sur-|ren- dered I|
w: 2.~Ful- ly sur-|ren- dered, the strug- gle is|o’er, Now from my|Sav- ior I’ll|
w: 3.~Ful- ly sur-|ren- dered, to go or to|stay, Just where He|needs me, His|
 [GB][FA][EG] | [DF]6 [FA][FA][FA] | [FA]3 [DF]2 [DF] [DG][DG][DG] | [DB]6 [DB][DB][DB] | %8
w: trust in His|Word; Hath He not|prom- ised that all who be-|lieve, Per- fect sal-|
w: wan- der no|more; Glad- ly the|world and its plea- sures for-|sake, And with my|
w: will to o-|bey; Hum- bly to|fol- low wher- ev- er He|leads, Trust- ing His|
 [DB]3 [DE]2 [DB] [^Gd][Ac][GB] | [EA]6 ||"^Refrain" [Fd][Fd][Fd] | [Fd]3 [FA]3 [GB][FA][^E^G] | %12
w: va- tion from Him shall re-|ceive?|||
w: Sav- ior the nar- row way|take;|||
w: Word to sup- ply all my|needs.|||
 [FA]3 [DF]3 [A,D][B,D][CE] | [DF]3 [DA]2 [DA] [DB][DA][DF] | [CE]6 [Gc][GB][Gc] | %15
w: |||
w: |||
w: |||
 [Fd]3 [FA]3 [Fd][Fd][Fd] | [Gd]3 [GB]3 [^E^G][EG][EG] | [FA]3 [Fd]2 [DF] [CA][CG][CE] | [A,D]6 |] %19
w: ||||
w: ||||
w: ||||
V:2
 [D,D][D,D][D,D] | [D,D]3 [D,A,]2 [D,A,] [D,A,][D,B,][D,C] | [D,D]6 [E,A,][E,A,][E,A,] | %3
w: ~ ~ ~|~ ~ ~ ~ ~ ~|~ ~ ~ ~|
 [A,,A,]3 [A,,A,]2 [A,,A,] | [A,,A,][B,,A,][C,A,] | [D,A,]6 [D,D][D,D][D,D] | %6
w: ~ ~ ~|~ ~ ~|~ ~ ~ ~|
 [D,D]3 [D,A,]2 [=C,A,] [B,,G,][B,,G,][A,,F,] | [G,,G,]6 [G,,G,][G,,G,][G,,G,] | %8
w: ~ ~ ~ ~ ~ ~|~ ~ ~ ~|
 [E,^G,]3 [E,G,]2 [E,G,] [E,B,][E,E][E,D] | [A,,C]6 || [D,A,][D,A,][D,A,] | %11
w: ~ ~ ~ ~ ~ ~|~|Ful- ly sur-|
 [D,A,]3 [D,D]3 [D,D][D,D][D,D] | [D,D]3 [D,A,]3 [D,F,][B,,F,][A,,A,] | %13
w: ren- dered, ful- ly sur-|ren- dered, All on the|
 [D,A,]3 [D,F,]2 [D,F,] [D,G,][D,F,][D,A,] | [A,,A,]6 [A,,A,][A,,A,][A,,A,] | %15
w: al- tar and un- der the|blood; Ful- ly sur-|
 [D,A,]3 [D,D]3 [D,=C][D,C][D,C] | [G,B,]3 [G,D]3 [B,D][B,D][B,D] | %17
w: ren- dered, ful- ly sur-|ren- dered, Par- doned and|
 [A,D]3 [A,D]2 A, [A,,E,][A,,A,][A,,G,] | [D,F,]6 |] %19
w: cleansed, hal- le- lu- jah to||
V:3
 x3 | x9 | x9 | x6 | x3 | x9 | x9 | x9 | x9 | x6 || x3 | x9 | x9 | x9 | x9 | x9 | x9 | x5 A, x3 | %18
w: |||||||||||||||||God!|
 x6 |] %19
w: |

